X: 791
T: AJ's
R: jig
M: 6/8
K: Emajor
g3 fef|gfe cBc|ecB GFE|EFE CB,C|
E2 E FEc|Bce gfe|fge ceB|1 bec def:|2 bec deg||
f2 e zde|d2 c zde|Bce GFE|EFE CB,C|
E2 E FEc|Bce gfe|fge ceB|1 bec deg:|2 bec def||

